assets/components_previews/forms/dark/input.svg

<svg xmlns="http://www.w3.org/2000/svg" width="320" height="232" fill="none" viewBox="0 0 320 232"><g filter="url(#a)"><rect width="162" height="32" x="79" y="100" fill="#0E0F10" rx="8"/><path fill="#5F43D0" d="M91.7 121v-10.08h2.156V121zm3.52 0v-7.14h2.058v1.302c.49-.882 1.358-1.442 2.562-1.442 1.582 0 2.45.952 2.45 2.45V121h-2.1v-4.424c0-.784-.406-1.176-1.176-1.176-.994 0-1.694.714-1.694 1.764V121zm12.847.14c-1.162 0-1.946-.49-2.254-1.316v4.046h-2.1v-10.01h2.058v1.148c.35-.798 1.246-1.288 2.408-1.288 1.918 0 3.15 1.442 3.15 3.682 0 2.268-1.288 3.738-3.262 3.738m-.588-1.68c.98 0 1.666-.742 1.666-2.044s-.686-2.016-1.694-2.016c-.98 0-1.666.728-1.666 2.03s.686 2.03 1.694 2.03m7.16 1.68c-1.526 0-2.394-1.092-2.394-2.45v-4.83h2.1v4.424c0 .784.406 1.176 1.12 1.176.938 0 1.638-.714 1.638-1.764v-3.836h2.1V121h-2.058v-1.302c-.49.882-1.344 1.442-2.506 1.442m9.325.014c-1.834 0-2.702-.868-2.702-2.688v-3.01h-1.33v-1.596h1.33v-1.596l2.1-.784v2.38h1.848v1.596h-1.848v3.08c0 .644.35.952 1.092.952.28 0 .518-.056.756-.14v1.596c-.252.14-.7.21-1.246.21"/><path stroke="#4329AC" stroke-linecap="round" stroke-width="2" d="M127 109v14"/></g><defs><filter id="a" width="202" height="72" x="59" y="92" color-interpolation-filters="sRGB" filterUnits="userSpaceOnUse"><feFlood flood-opacity="0" result="BackgroundImageFix"/><feColorMatrix in="SourceAlpha" result="hardAlpha" values="0 0 0 0 0 0 0 0 0 0 0 0 0 0 0 0 0 0 127 0"/><feOffset dy="12"/><feGaussianBlur stdDeviation="10"/><feComposite in2="hardAlpha" operator="out"/><feColorMatrix values="0 0 0 0 0 0 0 0 0 0 0 0 0 0 0 0 0 0 0.03 0"/><feBlend in2="BackgroundImageFix" result="effect1_dropShadow_10159_2719"/><feColorMatrix in="SourceAlpha" result="hardAlpha" values="0 0 0 0 0 0 0 0 0 0 0 0 0 0 0 0 0 0 127 0"/><feOffset dy="2"/><feGaussianBlur stdDeviation="3"/><feComposite in2="hardAlpha" operator="out"/><feColorMatrix values="0 0 0 0 0 0 0 0 0 0 0 0 0 0 0 0 0 0 0.05 0"/><feBlend in2="effect1_dropShadow_10159_2719" result="effect2_dropShadow_10159_2719"/><feBlend in="SourceGraphic" in2="effect2_dropShadow_10159_2719" result="shape"/></filter></defs></svg>

<svg width="320" height="232" viewBox="0 0 320 232" fill="none" xmlns="http://www.w3.org/2000/svg">
<g filter="url(#filter0_dd_10159_2719)">
<rect x="79" y="100" width="162" height="32" rx="8" fill="#0E0F10"/>
<path d="M91.7 121V110.92H93.856V121H91.7ZM95.2197 121V113.86H97.2777V115.162C97.7677 114.28 98.6357 113.72 99.8397 113.72C101.422 113.72 102.29 114.672 102.29 116.17V121H100.19V116.576C100.19 115.792 99.7837 115.4 99.0137 115.4C98.0197 115.4 97.3197 116.114 97.3197 117.164V121H95.2197ZM108.067 121.14C106.905 121.14 106.121 120.65 105.813 119.824V123.87H103.713V113.86H105.771V115.008C106.121 114.21 107.017 113.72 108.179 113.72C110.097 113.72 111.329 115.162 111.329 117.402C111.329 119.67 110.041 121.14 108.067 121.14ZM107.479 119.46C108.459 119.46 109.145 118.718 109.145 117.416C109.145 116.114 108.459 115.4 107.451 115.4C106.471 115.4 105.785 116.128 105.785 117.43C105.785 118.732 106.471 119.46 107.479 119.46ZM114.639 121.14C113.113 121.14 112.245 120.048 112.245 118.69V113.86H114.345V118.284C114.345 119.068 114.751 119.46 115.465 119.46C116.403 119.46 117.103 118.746 117.103 117.696V113.86H119.203V121H117.145V119.698C116.655 120.58 115.801 121.14 114.639 121.14ZM123.964 121.154C122.13 121.154 121.262 120.286 121.262 118.466V115.456H119.932V113.86H121.262V112.264L123.362 111.48V113.86H125.21V115.456H123.362V118.536C123.362 119.18 123.712 119.488 124.454 119.488C124.734 119.488 124.972 119.432 125.21 119.348V120.944C124.958 121.084 124.51 121.154 123.964 121.154Z" fill="#5F43D0"/>
<line x1="127" y1="109" x2="127" y2="123" stroke="#4329AC" stroke-width="2" stroke-linecap="round"/>
</g>
<defs>
<filter id="filter0_dd_10159_2719" x="59" y="92" width="202" height="72" filterUnits="userSpaceOnUse" color-interpolation-filters="sRGB">
<feFlood flood-opacity="0" result="BackgroundImageFix"/>
<feColorMatrix in="SourceAlpha" type="matrix" values="0 0 0 0 0 0 0 0 0 0 0 0 0 0 0 0 0 0 127 0" result="hardAlpha"/>
<feOffset dy="12"/>
<feGaussianBlur stdDeviation="10"/>
<feComposite in2="hardAlpha" operator="out"/>
<feColorMatrix type="matrix" values="0 0 0 0 0 0 0 0 0 0 0 0 0 0 0 0 0 0 0.03 0"/>
<feBlend mode="normal" in2="BackgroundImageFix" result="effect1_dropShadow_10159_2719"/>
<feColorMatrix in="SourceAlpha" type="matrix" values="0 0 0 0 0 0 0 0 0 0 0 0 0 0 0 0 0 0 127 0" result="hardAlpha"/>
<feOffset dy="2"/>
<feGaussianBlur stdDeviation="3"/>
<feComposite in2="hardAlpha" operator="out"/>
<feColorMatrix type="matrix" values="0 0 0 0 0 0 0 0 0 0 0 0 0 0 0 0 0 0 0.05 0"/>
<feBlend mode="normal" in2="effect1_dropShadow_10159_2719" result="effect2_dropShadow_10159_2719"/>
<feBlend mode="normal" in="SourceGraphic" in2="effect2_dropShadow_10159_2719" result="shape"/>
</filter>
</defs>
</svg>
